X:0
T:Devils Dance
C:Copyright 2015 Stephan Deibel
K:Am
L:1/8
M:4/4
c,B,|:"Am"A,2c,2e,3d,|e,Ge,d, "G"e,Ge,d,|"Am"d,2c,d, e,2d,2|"Em"d,c,B,2 "G"d,2c,B,|
"Am"A,2c,2e,3d,|e,Ge,d, e,Ge,d,|"G"d,2c,d, e,2d,2|1:"F7"c,2"Gm"B,2"Am"A,2c,B,:|2:"F7"c,2"Gm"B,2"Am"A,2cB||
|:"Am"A2AG ABAG|ABAG "G"E4|"Am"AGAB cde2|"C"edef edcB|
"Am"A2AG ABAG|ABAG E4|"Em"AGE2EDC2|1:"D"D2"Bm"B,2"Am"A,2cB:|2:"D"D2"Bm"B,2"Am"A,4||